build-source/logos/sport1plus-wispelutri.default.svg

<svg xmlns="http://www.w3.org/2000/svg" viewBox="0 0 600 133.05"><g fill="#212d34"><path d="m0 0l.327 1.219h4.332c.205 0 .396.167.425.373.014.102-.015.204-.081.279-.06.069-.142.107-.232.107h-2.771c-.425 0-.795.162-1.041.455-.247.294-.342.687-.266 1.108.172.963.984 1.573 1.852 1.573h4.53l-.326-1.219h-4.392c-.19 0-.364-.153-.423-.372-.023-.089-.005-.178.051-.252.06-.078.155-.124.253-.124h2.786c.426 0 .795-.162 1.041-.457.245-.294.33-.688.26-1.112-.158-.951-.896-1.578-1.869-1.578h-4.456" transform="matrix(15.74347 0 0-15.74347.002 107.53)"/><path d="m0 0c-1.52 0-2.152-.786-2.569-2.346l-.743-2.768h1.318l.736 2.768c.156.584.531 1.127 1.258 1.127h1.549l.321 1.219h-1.87" transform="matrix(15.74347 0 0-15.74347 366.45 27)"/><path d="m0 0h-2.039l.459 1.715h-1.317l-1.83-6.829h1.317l1.043 3.896h2.041l.326 1.218" transform="matrix(15.74347 0 0-15.74347 456.83 27)"/><path d="m0 0l-.191-.714c-.135-.502-.58-.942-1.2-.942h-2.474l.717 2.676h2.44c.867 0 .771-.791.708-1.02m-.708 2.239h-2.113-1.318l-1.805-6.736h1.318l.435 1.622h2.8c1.203 0 2.119.759 2.413 1.845l.192.714c.291 1.08-.009 2.555-1.922 2.555" transform="matrix(15.74347 0 0-15.74347 188.33 62.25)"/><path d="m0 0l-.191-.714c-.135-.502-.58-.942-1.2-.942h-1.88c-.867 0-.771.79-.708 1.02l.191.714c.134.502.6.942 1.2.942h1.879c.868 0 .772-.791.709-1.02m-.709 2.239h-1.879c-1.127 0-2.119-.759-2.414-1.846l-.191-.714c-.292-1.08-.022-2.554 1.922-2.554h1.88c1.203 0 2.119.759 2.413 1.845l.192.714c.291 1.08-.009 2.555-1.923 2.555" transform="matrix(15.74347 0 0-15.74347 297.19 62.25)"/></g><g fill="#ffb400"><path d="m0 0c-.336-1.016-1.293-1.714-2.374-1.714l-.311-1.219h1.466l-1.045-3.895h1.745l1.854 6.828c0 0-1.335 0-1.335 0" transform="matrix(15.74347 0 0-15.74347 502.33.017)"/><path d="m0 0h-1.952l.522 1.948h-1.317l-.523-1.948h-1.937l-.327-1.218h1.938l-.522-1.948h1.318l.522 1.948h1.952l.326 1.218" transform="matrix(15.74347 0 0-15.74347 600 57.67)"/></g></svg>

<?xml version="1.0" encoding="UTF-8" standalone="no"?>
<!-- Created with Inkscape (http://www.inkscape.org/) -->

<svg
   xmlns:dc="http://purl.org/dc/elements/1.1/"
   xmlns:cc="http://creativecommons.org/ns#"
   xmlns:rdf="http://www.w3.org/1999/02/22-rdf-syntax-ns#"
   xmlns:svg="http://www.w3.org/2000/svg"
   xmlns="http://www.w3.org/2000/svg"
   version="1.1"
   width="600"
   height="133.04836"
   id="svg220494">
  <defs
     id="defs220496" />
  <metadata
     id="metadata220499">
    <rdf:RDF>
      <cc:Work
         rdf:about="">
        <dc:format>image/svg+xml</dc:format>
        <dc:type
           rdf:resource="http://purl.org/dc/dcmitype/StillImage" />
        <dc:title></dc:title>
      </cc:Work>
    </rdf:RDF>
  </metadata>
  <g
     transform="translate(26.326908,-465.83803)"
     id="layer1">
    <g
       transform="matrix(1.3412432,0,0,1.3412432,-93.389068,-181.66495)"
       id="g220581">
      <g
         transform="matrix(11.737993,0,0,-11.737993,50,562.93379)"
         id="g135215">
        <path
           d="m 0,0 0.327,1.219 4.332,0 c 0.205,0 0.396,0.167 0.425,0.373 C 5.098,1.694 5.069,1.796 5.003,1.871 4.943,1.94 4.861,1.978 4.771,1.978 L 2,1.978 C 1.575,1.978 1.205,2.14 0.959,2.433 0.712,2.727 0.617,3.12 0.693,3.541 0.865,4.504 1.677,5.114 2.545,5.114 l 4.53,0 -0.326,-1.219 -4.392,0 C 2.167,3.895 1.993,3.742 1.934,3.523 1.911,3.434 1.929,3.345 1.985,3.271 2.045,3.193 2.14,3.147 2.238,3.147 l 2.786,0 C 5.45,3.147 5.819,2.985 6.065,2.69 6.31,2.396 6.395,2.002 6.325,1.578 6.167,0.627 5.429,0 4.456,0 L 0,0"
           id="path135217"
           style="fill:#212d34;fill-opacity:1;fill-rule:nonzero;stroke:none" />
      </g>
      <g
         transform="matrix(11.737993,0,0,-11.737993,323.21353,502.89395)"
         id="g135219">
        <path
           d="m 0,0 c -1.52,0 -2.152,-0.786 -2.569,-2.346 l -0.743,-2.768 1.318,0 0.736,2.768 c 0.156,0.584 0.531,1.127 1.258,1.127 l 1.549,0 L 1.87,0 0,0"
           id="path135221"
           style="fill:#212d34;fill-opacity:1;fill-rule:nonzero;stroke:none" />
      </g>
      <g
         transform="matrix(11.737993,0,0,-11.737993,390.60087,502.89395)"
         id="g135223">
        <path
           d="m 0,0 -2.039,0 0.459,1.715 -1.317,0 -1.83,-6.829 1.317,0 1.043,3.896 2.041,0 L 0,0"
           id="path135225"
           style="fill:#212d34;fill-opacity:1;fill-rule:nonzero;stroke:none" />
      </g>
      <g
         transform="matrix(11.737993,0,0,-11.737993,190.40987,529.17532)"
         id="g135227">
        <path
           d="m 0,0 -0.191,-0.714 c -0.135,-0.502 -0.58,-0.942 -1.2,-0.942 l -2.474,0 0.717,2.676 2.44,0 C 0.159,1.02 0.063,0.229 0,0 z m -0.708,2.239 -2.113,0 -1.318,0 -1.805,-6.736 1.318,0 0.435,1.622 2.8,0 c 1.203,0 2.119,0.759 2.413,1.845 l 0.192,0.714 c 0.291,1.08 -0.009,2.555 -1.922,2.555"
           id="path135229"
           style="fill:#212d34;fill-opacity:1;fill-rule:nonzero;stroke:none" />
      </g>
      <g
         transform="matrix(11.737993,0,0,-11.737993,271.57762,529.17532)"
         id="g135231">
        <path
           d="m 0,0 -0.191,-0.714 c -0.135,-0.502 -0.58,-0.942 -1.2,-0.942 l -1.88,0 c -0.867,0 -0.771,0.79 -0.708,1.02 l 0.191,0.714 c 0.134,0.502 0.6,0.942 1.2,0.942 l 1.879,0 C 0.159,1.02 0.063,0.229 0,0 z m -0.709,2.239 -1.879,0 c -1.127,0 -2.119,-0.759 -2.414,-1.846 l -0.191,-0.714 c -0.292,-1.08 -0.022,-2.554 1.922,-2.554 l 1.88,0 c 1.203,0 2.119,0.759 2.413,1.845 l 0.192,0.714 c 0.291,1.08 -0.009,2.555 -1.923,2.555"
           id="path135233"
           style="fill:#212d34;fill-opacity:1;fill-rule:nonzero;stroke:none" />
      </g>
      <g
         transform="matrix(11.737993,0,0,-11.737993,424.52367,482.77503)"
         id="g135235">
        <path
           d="m 0,0 c -0.336,-1.016 -1.293,-1.714 -2.374,-1.714 l -0.311,-1.219 1.466,0 -1.045,-3.895 1.745,0 L 1.335,0 C 1.335,0 0,0 0,0"
           id="path135237"
           style="fill:#ffb400;fill-opacity:1;fill-rule:nonzero;stroke:none" />
      </g>
      <g
         transform="matrix(11.737993,0,0,-11.737993,497.34618,525.75956)"
         id="g135239">
        <path
           d="m 0,0 -1.952,0 0.522,1.948 -1.317,0 L -3.27,0 l -1.937,0 -0.327,-1.218 1.938,0 -0.522,-1.948 1.318,0 0.522,1.948 1.952,0 L 0,0"
           id="path135241"
           style="fill:#ffb400;fill-opacity:1;fill-rule:nonzero;stroke:none" />
      </g>
    </g>
  </g>
</svg>
